src/icon/brand/card-belkart/icon_card-belkart_xxl_white.svg

<svg width="48px" height="48px" viewBox="0 0 48 48" version="1.1" xmlns="http://www.w3.org/2000/svg"><g stroke="none" stroke-width="1" fill="none" fill-rule="evenodd"><polygon points="0 0 48 0 48 48 0 48"/><path d="M12.9295058,26.7943088 L11.3524709,26.7943088 L11.3524709,26.7943088 C11.1678779,26.7943088 11.0181686,26.9455884 11.0181686,27.1288695 L11.0181686,33.4942497 C11.0181686,33.6789854 11.1693314,33.8288104 11.3524709,33.8288104 L18.1315407,33.8288104 L17.034157,34.9270421 C16.903343,35.0579572 16.903343,35.2703305 17.034157,35.4012455 L21.5327035,39.9018137 C21.6635174,40.0327288 21.8757267,40.0327288 22.0065407,39.9018137 L26.7681686,35.1365062 L26.7681686,36.6929406 C26.7681686,36.8776763 26.9193314,37.0275013 27.1024709,37.0275013 L33.462936,37.0275013 C33.6475291,37.0275013 33.7972384,36.8762216 33.7972384,36.6929406 L33.7972384,29.8882676 L34.9295058,31.0214101 C35.0603198,31.1523251 35.2725291,31.1523251 35.403343,31.0214101 L39.9018895,26.5193872 C40.0327035,26.3884722 40.0327035,26.1760989 39.9018895,26.0451839 L33.1359012,19.273967 L35.0704942,21.210055 L36.6577035,21.210055 C36.8422965,21.210055 36.9920058,21.0587754 36.9920058,20.8754943 L36.9920058,14.5101141 C36.9920058,14.3253784 36.840843,14.1755534 36.6577035,14.1755534 L29.8815407,14.1755534 L30.9818314,13.0744125 C31.1111919,12.9434974 31.1111919,12.7311241 30.9818314,12.6002091 L26.4832849,8.09818628 C26.3524709,7.96727124 26.1402616,7.96727124 26.0094477,8.09818628 L21.2042151,12.9071321 L21.2274709,12.8838584 L21.2274709,11.2997864 L21.2274709,11.2997864 C21.2274709,11.1165053 21.0763081,10.9652257 20.8931686,10.9652257 L14.53125,10.9652257 C14.346657,10.9652257 14.1969477,11.1165053 14.1969477,11.2997864 L14.1969477,18.1117324 L13.0690407,16.9844084 L13.0690407,16.9844084 L13.0690407,16.9844084 C12.9382267,16.8534933 12.7260174,16.8534933 12.5952035,16.9844084 L8.09811047,21.4849766 C7.96729651,21.6158916 7.96729651,21.8282649 8.09811047,21.95918 L12.9295058,26.7943088 L12.9295058,26.7943088 Z M20.8931686,21.2115096 C21.0777616,21.2115096 21.2274709,21.06023 21.2274709,20.876949 L21.2274709,17.8368108 L19.2449128,15.3421519 L23.7434593,19.8427201 C23.8742733,19.9736352 24.0864826,19.9736352 24.2172965,19.8427201 L26.4280523,17.6302559 L26.7550872,14.5086595 L26.7550872,20.8740397 C26.7550872,21.0573208 26.90625,21.2086004 27.0893895,21.2086004 L30.2565407,21.2086004 L32.662064,19.2725124 L28.1635174,23.7745352 C28.0327035,23.9054502 28.0327035,24.1178235 28.1635174,24.2487386 L30.3684593,26.4568389 L33.4614826,26.7841266 L27.1010174,26.7841266 C26.9164244,26.7841266 26.7667151,26.9354062 26.7667151,27.1186872 L26.7667151,30.107914 L28.7710756,32.6578481 L24.2725291,28.1558253 C24.1417151,28.0249102 23.9295058,28.0249102 23.7986919,28.1558253 L21.653343,30.3028319 L21.2536337,33.4927951 L21.2536337,27.1274149 C21.2536337,26.9426792 21.1024709,26.7928542 20.9193314,26.7928542 L17.7071221,26.7928542 L15.337936,28.7289422 L19.8364826,24.2269194 C19.9672965,24.0960044 19.9672965,23.8836311 19.8364826,23.752716 L17.5850291,21.4995227 L14.534157,21.2086004 L20.8931686,21.2086004 L20.8931686,21.2115096 Z" fill-opacity="0.9" fill="#FFFFFF"/></g></svg>

<svg width="48" height="48" viewBox="0 0 48 48" xmlns="http://www.w3.org/2000/svg"><g fill="none" fill-rule="evenodd"><path d="M0 0h48v48H0z"/><path d="M12.93 26.794h-1.578a.335.335 0 0 0-.334.335v6.365c0 .185.151.335.334.335h6.78l-1.098 1.098a.336.336 0 0 0 0 .474l4.499 4.5c.13.132.343.132.474 0l4.761-4.764v1.556c0 .185.151.335.334.335h6.36a.335.335 0 0 0 .335-.335v-6.805l1.133 1.133c.13.131.343.131.473 0l4.499-4.502a.336.336 0 0 0 0-.474l-6.766-6.771 1.934 1.936h1.588a.335.335 0 0 0 .334-.335V14.51a.335.335 0 0 0-.334-.334h-6.776l1.1-1.102a.338.338 0 0 0 0-.474l-4.499-4.502a.335.335 0 0 0-.474 0l-4.805 4.81.023-.024V11.3a.336.336 0 0 0-.334-.335h-6.362a.335.335 0 0 0-.334.335v6.812l-1.128-1.128a.335.335 0 0 0-.474 0l-4.497 4.501a.336.336 0 0 0 0 .474l4.832 4.835zm7.963-5.582a.335.335 0 0 0 .334-.335v-3.04l-1.982-2.495 4.498 4.5c.131.132.343.132.474 0l2.211-2.212.327-3.121v6.365c0 .183.151.335.334.335h3.168l2.405-1.936-4.498 4.502a.336.336 0 0 0 0 .474l2.204 2.208 3.093.327h-6.36a.335.335 0 0 0-.334.335v2.989l2.004 2.55-4.498-4.502a.335.335 0 0 0-.474 0l-2.146 2.147-.4 3.19v-6.366a.335.335 0 0 0-.334-.334h-3.212l-2.37 1.936 4.5-4.502a.336.336 0 0 0 0-.474L17.584 21.5l-3.05-.291h6.358v.003z" fill-opacity=".9" fill="#FFF"/></g></svg>
